X:71
T:Tony Lowe's Polka
T:Maid in the Blue Bonnet, The
T:Toormore #1
T:Tournmore, The
T:Tuar Mor #1, The
T:Gullane Polka, The
T:Wallace's Cross
R:polka
Z:id:hn-polka-71
M:2/4
L:1/8
K:D
ef/e/ dB|BA B/c/d|ef/e/ dB|BA A2|ef/e/ dB|BA B/c/d|af/a/ gc|1 ed d2:|2 ed de||
|:f>e fA|B/c/d ef|g>f ga|ba f/g/a|f>e fA|B/c/d ef|af/a/ gc|1 ed de:|2 ed d2||
<end>
<start>
